X:125
T:Maid Of Mount Kisco (reel), The  
B:CRE1.118 (Gearrchaile Shliabh Cisco)
F:file ID: cre.1/125maid_mk
C:Paddy Killoran
S:Matthew Tiernan
M:C
L:1/8
Q:180
R:reel
K:Am
EAA2 BAA2|EAA2 BGAG|EGG2 AGG2|EGG2 (3E^FG DG|
"5"EAA2 BAA2|EAA2 BA (3B^cd|egg2 a^f (3gfe|1 dBGA BAA2:|\
[2 dBGA BAdB||
"9"A3B dBAB|G2BG DGBG|A3B BABd|egg2 gedB|
"13"A2AB dBAB|G2BG DGBG|A3B BABd|ef (3gfe d2Bd||
"17"|:eaa2 bgag|(3ege dB GABd|eaa2 baa2|(3gag e^f g2 (3efg|
"21"a2a^f gage|dedB GA (3B^cd|eAA2 e^f (3gfe|dBGA BAA2:|]

%%%

